icons/plexis/48/mattermost-desktop.svg

<svg viewBox="0 0 48 48" xmlns="http://www.w3.org/2000/svg" xmlns:xlink="http://www.w3.org/1999/xlink">
  <linearGradient id="a" gradientTransform="matrix(0 -1 1 0 -.0000015 47.999998)" gradientUnits="userSpaceOnUse" x1="1" x2="47">
    <stop offset="0" stop-color="#0c90c0"/>
    <stop offset="1" stop-color="#0d9ed3"/>
  </linearGradient>
  <path d="m47 24c0 22.703-.297 23-23 23-22.703 0-23-.297-23-23 0-22.703.297-23 23-23 22.703 0 23 .297 23 23z" fill="url(#a)"/>
  <path d="m25 10a15 15 0 0 0-15 15 15 15 0 0 0  15 15 15 15 0 0 0  15-15 15 15 0 0 0-6-11.98v2.443a11 11 0 0 1 3 7.537 11 11 0 0 1-11 11 11 11 0 0 1-11-11 11 11 0 0 1  8.938-10.797l1.553-2.186a15 15 0 0 0-.491-.017m4.83 1c-.087.002-.141.027-.201.098l-6.789 9.559c-.513.721-.84 1.463-.84 2.343 0 2.209 1.791 4 4 4 2.209 0 4-1.791 4-4v-11.801c0-.119-.082-.201-.17-.199" opacity=".1"/>
  <path d="m24 9a15 15 0 0 0-15 15 15 15 0 0 0  15 15 15 15 0 0 0  15-15 15 15 0 0 0-6-11.98v2.443a11 11 0 0 1 3 7.537 11 11 0 0 1-11 11 11 11 0 0 1-11-11 11 11 0 0 1  8.938-10.797l1.552-2.183a15 15 0 0 0-.49-.02m4.83 1c-.087.002-.141.027-.201.098l-6.789 9.559c-.513.721-.84 1.463-.84 2.343 0 2.209 1.791 4 4 4 2.209 0 4-1.791 4-4v-11.801c0-.119-.082-.201-.17-.199" fill="#e3f6fd"/>
</svg>

<svg xmlns="http://www.w3.org/2000/svg" viewBox="0 0 48 48">
 <defs>
  <linearGradient id="linearGradient3764" x1="1" x2="47" gradientUnits="userSpaceOnUse" gradientTransform="matrix(0,-1,1,0,-1.5e-6,47.999998)">
   <stop style="stop-color:#0c90c0;stop-opacity:1"/>
   <stop offset="1" style="stop-color:#0d9ed3;stop-opacity:1"/>
  </linearGradient>
 </defs>
 <g>
  
  
  
 </g>
 <g>
  <path d="m 47,24 C 47,46.703 46.703,47 24,47 1.297,47 1,46.703 1,24 1,1.297 1.297,1 24,1 46.703,1 47,1.297 47,24 z" style="fill:url(#linearGradient3764);fill-opacity:1"/>
 </g>
 <g>
  <g>
   <g transform="translate(1,1)">
    <g style="opacity:0.1">
     <!-- color: #3a569c -->
    </g>
   </g>
  </g>
 </g>
 <g>
  
 </g>
 <path d="M 25 10 A 15 15 0 0 0 10 25 15 15 0 0 0 25 40 15 15 0 0 0 40 25 15 15 0 0 0 34 13.02 l 0 2.443 A 11 11 0 0 1 37 23 11 11 0 0 1 26 34 11 11 0 0 1 15 23 11 11 0 0 1 23.938 12.203 l 1.553 -2.186 A 15 15 0 0 0 25 10 m 4.83 1 c -0.087 0.002 -0.141 0.027 -0.201 0.098 l -6.789 9.559 C 22.327 21.378 22 22.12 22 23 c 0 2.209 1.791 4 4 4 2.209 0 4 -1.791 4 -4 L 30 11.199 C 30 11.08 29.918 10.998 29.83 11" style="fill:#000;opacity:0.1;fill-opacity:1;stroke:none"/>
 <path d="M 24 9 A 15 15 0 0 0 9 24 15 15 0 0 0 24 39 15 15 0 0 0 39 24 15 15 0 0 0 33 12.02 l 0 2.443 A 11 11 0 0 1 36 22 11 11 0 0 1 25 33 11 11 0 0 1 14 22 11 11 0 0 1 22.938 11.203 L 24.49 9.02 A 15 15 0 0 0 24 9 m 4.83 1 c -0.087 0.002 -0.141 0.027 -0.201 0.098 l -6.789 9.559 C 21.327 20.378 21 21.12 21 22 c 0 2.209 1.791 4 4 4 2.209 0 4 -1.791 4 -4 L 29 10.199 C 29 10.08 28.918 9.998 28.83 10" style="fill:#e3f6fd;opacity:1;fill-opacity:1;stroke:none"/>
</svg>
